cssgg/toolbar-top.svg

<svg
  width="24"
  height="24"
  viewBox="0 0 24 24"
  fill="none"
  xmlns="http://www.w3.org/2000/svg"
>
  <path d="M18 11H6V9H18V11Z" fill="currentColor" />
  <path
    fill-rule="evenodd"
    clip-rule="evenodd"
    d="M2 16C2 17.6569 3.34315 19 5 19H19C20.6569 19 22 17.6569 22 16V8C22 6.34315 20.6569 5 19 5H5C3.34315 5 2 6.34315 2 8V16ZM5 17H19C19.5523 17 20 16.5523 20 16V8C20 7.44772 19.5523 7 19 7H5C4.44772 7 4 7.44771 4 8V16C4 16.5523 4.44772 17 5 17Z"
    fill="currentColor"
  />
</svg>

<svg viewBox="0 0 24 24" xmlns="http://www.w3.org/2000/svg"><g><path d="M18 11H6V9h12v2Z"/><path fill-rule="evenodd" d="M2 16c0 1.65 1.34 3 3 3h14c1.65 0 3-1.35 3-3V8c0-1.66-1.35-3-3-3H5C3.34 5 2 6.34 2 8v8Zm3 1h14c.55 0 1-.45 1-1V8c0-.56-.45-1-1-1H5c-.56 0-1 .44-1 1v8c0 .55.44 1 1 1Z"/></g></svg>
